X:1
T:Memories of You
T:Memories of You
T:1930, Shapiro, Bernstein and Co., Inc., New York
C:Eubie Blake
Z:Andy Razaf
Z:1930, Shapiro, Bernstein and Co., Inc., New York
%%score { ( 1 2 5 ) | ( 3 4 ) }
L:1/8
Q:1/4=100
M:4/4
K:Eb
V:1 treble nm="Piano" snm="Pno."
V:2 treble 
V:5 treble 
V:3 bass 
V:4 bass 
V:1
|: [B,D]2 C2 _d4 | E4 E4 | E4 G2 B2 | f6 z2 | e2 c2 [=Ace]4 | B2 G2 [GB_d]4 | [ce]4 [FA]4 |1 %7
 [CE]4 c2 d2 :|2 [CE]4 [CF]2 [DF]2 || G2 c2 d2 e2 | A2 c2 [d_g]2 e2 | G2 c2 d2 e2 | e4 d4 | %13
 G2 c2 d2 e2 | e2 c2 c2 G2 | B8 | [CE]4 [FA]4 | [B,D]2 C2 _d4 | E4 E4 | E4 G2 B2 | f6 z2 | %21
 e2 c2 [=Ace]4 | B2 G2 [GB_d]4 | [ce]4 [FA]4 | [CE]4 c2 d2 | z8 | z8 | z8 | z8 | z8 | z8 | z8 |] %32
V:2
|: x4 C4 | C2 D2 D4 | D2 E2 E4 | [CE]4 [EFA=B]4 | B4 ^F4 | [DF]4 =E4 | F2 C2 C2 C2 |1 %7
 x4 [EA]2 A2 :|2 x8 || E4 [EB]4 | [E_G]4 E4 | E4 [EB]4 | G4 F4 | E4 G4 | G4 E4 | D4 [=Ec]4 | x8 | %17
 x4 C4 | C2 D2 D4 | D2 E2 E4 | [CE]4 [EFA=B]4 | B4 ^F4 | [DF]4 =E4 | F2 C2 C2 C2 | x4 [EA]2 A2 | %25
 x8 | x8 | x8 | x8 | x8 | x8 | x8 |] %32
V:3
|: G,4 [G,B,]4 | A,4 [=A,C]4 | B,4 [G,B,]4 | G,4 A,4 | [G,D]4 [=A,C]4 | B,4 [G,B,]4 | A,4 [B,D]4 |1 %7
 [G,B,]4 [F,A,]4 :|2 [G,B,]4 A,2 =B,2 || B,4 G,4 | C4 C4 | B,4 G,4 | [=A,C]4 =B,4 | B,4 G,4 | %14
 C4 =A,4 | F,4 G,4 | A,4 [B,D]4 | G,4 [G,B,]4 | A,4 [=A,C]4 | B,4 [G,B,]4 | G,4 A,4 | %21
 [G,D]4 [=A,C]4 | B,4 G,4 | C4 =A,4 | [G,B,]4 [F,A,]4 | z8 | z8 | z8 | z8 | z8 | z8 | z8 |] %32
V:4
|: E,4 =E,4 | F,4 ^F,4 | G,4 C,4 | =A,,4 A,,4 | E,4 D,4 | G,4 C,4 | F,4 B,,4 |1 E,4 F,2 B,,2 :|2 %8
 E,4 D,2 G,,2 || C,4 C,4 | A,,4 A,,4 | C,4 C,4 | F,4 G,,4 | C,4 =B,,4 | B,,4 =A,,4 | G,,4 C,4 | %16
 F,4 B,,4 | E,4 =E,4 | F,4 ^F,4 | G,4 C,4 | =A,,4 A,,4 | E,4 D,4 | C,4 =B,,4 | B,,4 =A,,4 | %24
 E,4 F,2 B,,2 | x8 | x8 | x8 | x8 | x8 | x8 | x8 |] %32
V:5
|: x8 | x8 | x8 | x8 | x8 | x8 | x8 |1 x8 :|2 x8 || x8 | x8 | x8 | G8 | x8 | x8 | x8 | x8 | x8 | %18
 x8 | x8 | x8 | x8 | x8 | x8 | x8 | x8 | x8 | x8 | x8 | x8 | x8 | x8 |] %32

